azure-patterns/svg-saas.svg

<svg xmlns="http://www.w3.org/2000/svg" viewBox="0 0 193 192">
                                
                            
<path d="M96.6036 156.729C62.5374 156.729 34.9512 129.143 34.9512 95.0769C34.9512 61.1033 62.5374 33.517 96.5111 33.4244V8.61536C48.8369 8.61536 10.1421 47.3101 10.1421 95.0769C10.1421 142.844 48.8369 181.538 96.6036 181.538C144.278 181.538 182.973 142.936 183.065 95.262H158.256C158.164 129.143 130.577 156.729 96.6036 156.729Z" fill="#0078D4"></path>
<path d="M96.6039 119.331C83.1811 119.331 72.3503 108.5 72.3503 95.0769C72.3503 81.7466 83.1811 70.9158 96.5114 70.8232V45.6439C69.2029 45.6439 47.1709 67.7684 47.1709 95.0769C47.1709 122.385 69.2954 144.51 96.6039 144.51C123.912 144.51 145.944 122.478 146.037 95.1695H120.765C120.765 108.5 109.934 119.331 96.6039 119.331Z" fill="#50E6FF"></path>
</svg>

<svg xmlns="http://www.w3.org/2000/svg" viewBox="0 0 193 192"><path d="M96.604 156.729c-34.067 0-61.653-27.586-61.653-61.652 0-33.974 27.586-61.56 61.56-61.653V8.615c-47.674 0-86.369 38.695-86.369 86.462s38.695 86.461 86.462 86.461c47.674 0 86.369-38.602 86.461-86.276h-24.809c-.092 33.881-27.679 61.467-61.652 61.467z" fill="#0078D4"/><path d="M96.604 119.331c-13.423 0-24.254-10.831-24.254-24.254 0-13.33 10.831-24.161 24.161-24.254v-25.18c-27.308 0-49.34 22.125-49.34 49.434 0 27.308 22.124 49.433 49.433 49.433 27.308 0 49.34-22.032 49.433-49.34h-25.272c0 13.33-10.831 24.161-24.161 24.161z" fill="#50E6FF"/></svg>
